Hatter-kde/actions/24/transform-move.svg

<svg xmlns="http://www.w3.org/2000/svg" viewBox="0 0 24 24">
  <defs id="defs3051">
    <style type="text/css" id="current-color-scheme">
      .ColorScheme-Text {
        color:#363636;
      }
      </style>
  </defs>
 <path style="fill:currentColor;fill-opacity:1;stroke:none" 
     d="M 12 4 L 10 8 L 14 8 L 12 4 z M 8 10 L 4 12 L 8 14 L 8 10 z M 16 10 L 16 14 L 20 12 L 16 10 z M 12 11 C 11.446 11 11 11.446 11 12 C 11 12.554 11.446 13 12 13 C 12.554 13 13 12.554 13 12 C 13 11.446 12.554 11 12 11 z M 10 16 L 12 20 L 14 16 L 10 16 z "
     class="ColorScheme-Text"
     />
</svg>

<?xml version="1.0" encoding="UTF-8"?>
<svg viewBox="0 0 24 24" xmlns="http://www.w3.org/2000/svg">
 <defs id="defs3051">
  <style id="current-color-scheme" type="text/css">.ColorScheme-Text {
        color:#363636;
      }</style>
 </defs>
 <path class="ColorScheme-Text" d="m12 4-2 4h4l-2-4zm-4 6-4 2 4 2v-4zm8 0v4l4-2-4-2zm-4 1c-0.554 0-1 0.446-1 1s0.446 1 1 1 1-0.446 1-1-0.446-1-1-1zm-2 5 2 4 2-4h-4z" fill="currentColor"/>
</svg>
